X: 161
T: Reel des Jeunes Mari\'es
M: C|
B: NEFR #161
Z: Mary Lou Knack?
R: reel
K: D
   A2 |\
"D"D2 FD FA de | "D"fa fd A2 ef | "A7"gf ed cA Bc | "D"dc de fd AF |
"D"D2 FD FA de | "D"fa fd A2 ef | "A7"gf ed cA Bc | "(D)"df "A7"ec "D"d2  :|
|: fg |\
"D"a2 fd Ad fa | "A7"g2 ec Ac ef | "A7"g2 ec Ac eg | "D"fe df "A7"eA df |
"D"a2 fd Ad fa | "A7"g2 ec Ac ef | "A7"g2 ec Ac eg | "(D)"fd "A7"ec "D"d2 :|
